X:123
T:Jordan - Fone
%%VWML:SBG-1-2-717-0
F:http://www.vwml.org/record/SBG/1/2/717
Z:Original Sibelius transcriptions by M. & S. Graebe
L:1/8
M:2/4
I:linebreak $
K:C
V:1 treble nm="P1"
V:2 treble 
L:1/4
V:1
 G2 | cBcc | dc d2 | edef | g3 G | c2 c2 | cdee | d2 B2 | G3 G | c2 c2 | d2 cd |$ edef | g3 g | %13
 _bagf | gfec | d4 | c3 G | c2 cd | e2 dc | f2 ff | g4 | [cg]2 [cg][cg] |$ ag ec | d4 | G3 G | %25
 cBcd | e2 dc | f2 ff | g3 g | _ba gf | ge ce | Pd4 | c2 x2 | %33
V:2
 x | x2 | x2 | x2 | x2 | x2 | x2 | x2 | x2 | x2 | x2 |$ x2 | x2 | x2 | x2 | x2 | x2 | x2 | x2 | %19
 x2 | x2 | x2 |$ f e | x2 | x2 | x2 | x2 | x2 | x2 | x2 | x2 | x2 | x2 | %33
T:Jordan - Darke
F:http://www.vwml.org/record/SBG/1/2/717
Z:Original Sibelius transcriptions by M. & S. Graebe
M:6/8
I:linebreak $
K:F
V:1 treble nm="P1"
V:1
 A | ABA c2 A | GAB A2 A | B2 A G2 F | EDE FD A | ABA c2 A | ded c2 A |$ BAG F2 E | F3 D3 | %9
[M:4/4]"^chor." A2 Bc d2 cB | A2 GF A4 | BB AG F2 ED | ED^CE D4 | %13
